packages/core/src/svgs/tokens/mono/FRONT.svg

<svg width="24" height="24" viewBox="0 0 24 24" fill="none" xmlns="http://www.w3.org/2000/svg">
<path d="M18.8749 2L18.1875 3.83749C16.4062 8.36872 15.0249 10.525 13.5625 10.525C12.6562 10.525 12.0062 10.1 11.375 9.50621C10.9062 9.06247 10.7125 8.94997 10.2625 8.94997C10.0312 8.94997 9.61248 9.26252 9.07494 9.98118C8.34168 11.0006 7.72138 12.0965 7.22499 13.25H13.525L12.6249 15.125H6.99999V22H5.125V2H18.8749ZM16.3749 3.87499L6.99999 3.85623V10.525C8.17498 8.41247 10.0437 6.01249 12.3875 8.14372C12.7313 8.46247 13.0499 8.83122 13.5562 8.83122C13.9687 8.83122 15.0063 7.24998 16.3749 3.87499Z" fill="white"/>
</svg>

<svg xmlns="http://www.w3.org/2000/svg" width="24" height="24" fill="none" viewBox="0 0 24 24">
    <path fill="#fff" d="m18.875 2-.687 1.837c-1.782 4.532-3.163 6.688-4.625 6.688-.907 0-1.557-.425-2.188-1.019-.469-.444-.662-.556-1.113-.556-.23 0-.65.313-1.187 1.031a17.3 17.3 0 0 0-1.85 3.269h6.3l-.9 1.875H7V22H5.125V2zm-2.5 1.875L7 3.856v6.669c1.175-2.113 3.044-4.513 5.387-2.381.344.318.663.687 1.17.687.412 0 1.45-1.581 2.818-4.956"/>
</svg>
